X:0727
T:Earl of Balcarras's March.
M:C
L:1/8
Q:1/2=60
N:initial rest added for both parts
I: :| :|
Z:Jack Campin * www.campin.me.uk * 2009
K:G
z(B/d/)|g2  d>d d2 (c`d/c/)|B2  B>B  B3    d    |d`g`B`d d>cc>B|A2 A>A A2
z(B/d/)|g2  d>d d2 (c`d/c/)|B2  B>B  B2  z d    |d>g`B>c B2 A2 |G2 G>G G2:|
z2     |A2  A>A A3    B    |G`B`d(g  b3)  (g/b/)|d'b`g`d d>BB>G|A2 A>A A2
A2     |B.D.D.D c.D.D.D    |d.D.D.D He3    d    |B`e`d`c B2 A2 |G2 G>G G2:|

